www/assets/icons/qr_code_2.svg

<svg width="24" height="24" viewBox="0 0 24 24" xmlns="http://www.w3.org/2000/svg" fill='currentColor'><path d="M15 21H13V19H15V21ZM13 14H11V19H13V14ZM21 12H19V16H21V12ZM19 10H17V12H19V10ZM7 12H5V14H7V12ZM5 10H3V12H5V10ZM12 5H14V3H12V5ZM4.5 4.5V7.5H7.5V4.5H4.5ZM9 9H3V3H9V9ZM4.5 16.5V19.5H7.5V16.5H4.5ZM9 21H3V15H9V21ZM16.5 4.5V7.5H19.5V4.5H16.5ZM21 9H15V3H21V9ZM19 19V16H15V18H17V21H21V19H19ZM17 12H13V14H17V12ZM13 10H7V12H9V14H11V12H13V10ZM14 9V7H12V5H10V9H14ZM6.75 5.25H5.25V6.75H6.75V5.25ZM6.75 17.25H5.25V18.75H6.75V17.25ZM18.75 5.25H17.25V6.75H18.75V5.25Z"/></svg>

<svg xmlns="http://www.w3.org/2000/svg" width="24" height="24" viewBox="0 0 24 24" fill='currentColor'><path d="M15 21h-2v-2h2zm-2-7h-2v5h2zm8-2h-2v4h2zm-2-2h-2v2h2zM7 12H5v2h2zm-2-2H3v2h2zm7-5h2V3h-2zm-7.5-.5v3h3v-3zM9 9H3V3h6zm-4.5 7.5v3h3v-3zM9 21H3v-6h6zm7.5-16.5v3h3v-3zM21 9h-6V3h6zm-2 10v-3h-4v2h2v3h4v-2zm-2-7h-4v2h4zm-4-2H7v2h2v2h2v-2h2zm1-1V7h-2V5h-2v4zM6.75 5.25h-1.5v1.5h1.5zm0 12h-1.5v1.5h1.5zm12-12h-1.5v1.5h1.5z"/></svg>
